packages/web-icons/svgs/minion_pro_10.svg

<svg viewBox="0 0 54 42" xmlns="http://www.w3.org/2000/svg" class="ridi_icon"><path d="M20.3.7C15.8 2.4 11 3.4 6.9 4l-.4 1.8h1.9c3.5.2 3.9.6 3.2 4.5L7.3 32.6c-1 5.1-1.5 5.5-6.7 6l-.4 2.1h18.4l.4-1.9c-5.7-.4-6-1-5.1-6C14 32.7 20.3.7 20.3.7zm23.5 0C32.6.7 26.9 15 26.4 24.6c-.7 8.7 1.8 16.8 10.2 16.8 11.2 0 16.6-14.2 17.2-24.4.8-8-1.6-16.3-10-16.3zm-.4 2.4c3.4 0 3.9 6.1 3.3 12.1-.6 8.1-3.9 24-9.6 24-3.4 0-4-6.3-3.4-12.6.5-8.6 3.7-23.5 9.7-23.5z"/></svg>

<?xml version="1.0" encoding="UTF-8"?>
<svg width="54px" height="42px" viewBox="0 0 54 42" version="1.1" xmlns="http://www.w3.org/2000/svg">
  <!-- Generator: Sketch 41.2 (35397) - http://www.bohemiancoding.com/sketch -->
  <title>minion_pro_10</title>
  <desc>Created with Sketch.</desc>
  <defs></defs>
  <g id="Page-1" stroke="none" stroke-width="1" fill="none" fill-rule="evenodd">
    <g id="minion_pro_10" fill="#000000">
      <g id="레이어_1">
        <path d="M20.3,0.7 C15.8,2.4 11,3.4 6.9,4 L6.5,5.8 L8.4,5.8 C11.9,6 12.3,6.4 11.6,10.3 L7.3,32.6 C6.3,37.7 5.8,38.1 0.6,38.6 L0.2,40.7 L18.6,40.7 L19,38.8 C13.3,38.4 13,37.8 13.9,32.8 C14,32.7 20.3,0.7 20.3,0.7 Z" id="Shape"></path>
        <path d="M43.8,0.7 C32.6,0.7 26.9,15 26.4,24.6 C25.7,33.3 28.2,41.4 36.6,41.4 C47.8,41.4 53.2,27.2 53.8,17 C54.6,9 52.2,0.7 43.8,0.7 Z M43.4,3.1 C46.8,3.1 47.3,9.2 46.7,15.2 C46.1,23.3 42.8,39.2 37.1,39.2 C33.7,39.2 33.1,32.9 33.7,26.6 C34.2,18 37.4,3.1 43.4,3.1 Z" id="Shape"></path>
      </g>
    </g>
  </g>
</svg>
